icons/modern/part-alternation-mark.svg

<svg width="32" height="32" viewBox="0 0 32 32" fill="none" xmlns="http://www.w3.org/2000/svg">
<g filter="url(#filter0_iiii_18590_2080)">
<path d="M28.2596 28.1102C27.6521 28.1102 27.0803 27.7377 26.8559 27.1352L19.9656 8.67143C19.8962 8.48528 19.6478 8.45064 19.5301 8.61068L15.6521 13.8814C15.3253 14.3258 14.8009 14.5921 14.2496 14.5939C14.2478 14.5939 14.2459 14.5939 14.2446 14.5939C13.6953 14.5939 13.1715 14.3314 12.8428 13.8902L8.88215 8.57537C8.76646 8.42012 8.52581 8.44964 8.45107 8.62824L4.63964 17.7358C4.32027 18.4996 3.44214 18.8589 2.67902 18.5396C1.91589 18.2202 1.55589 17.3421 1.87527 16.5789L6.70089 5.04707C6.94277 4.46957 7.47902 4.06332 8.10089 3.98644C8.72214 3.91019 9.34152 4.17457 9.71527 4.67707L14.036 10.4757C14.1364 10.6104 14.3383 10.6098 14.4379 10.4745L18.7584 4.60207C19.139 4.08457 19.7709 3.81832 20.4078 3.90644C21.0446 3.99519 21.5796 4.42457 21.804 5.02644L29.6628 26.0864C29.9521 26.8614 29.5584 27.7246 28.7828 28.0139C28.6109 28.0796 28.434 28.1102 28.2596 28.1102Z" fill="url(#paint0_linear_18590_2080)"/>
</g>
<g filter="url(#filter1_f_18590_2080)">
<path d="M8.72656 4.8273L13.8203 11.7648" stroke="#FFFF7A" stroke-width="0.75" stroke-linecap="round"/>
</g>
<g filter="url(#filter2_f_18590_2080)">
<path d="M20.8203 4.98355L28.9453 26.7648" stroke="url(#paint1_linear_18590_2080)" stroke-width="0.75" stroke-linecap="round"/>
</g>
<defs>
<filter id="filter0_iiii_18590_2080" x="1.50879" y="3.3898" width="28.499" height="24.7204" filterUnits="userSpaceOnUse" color-interpolation-filters="sRGB">
<feFlood flood-opacity="0" result="BackgroundImageFix"/>
<feBlend mode="normal" in="SourceGraphic" in2="BackgroundImageFix" result="shape"/>
<feColorMatrix in="SourceAlpha" type="matrix" values="0 0 0 0 0 0 0 0 0 0 0 0 0 0 0 0 0 0 127 0" result="hardAlpha"/>
<feOffset dx="0.25"/>
<feGaussianBlur stdDeviation="0.5"/>
<feComposite in2="hardAlpha" operator="arithmetic" k2="-1" k3="1"/>
<feColorMatrix type="matrix" values="0 0 0 0 0.827451 0 0 0 0 0.623529 0 0 0 0 0.270588 0 0 0 1 0"/>
<feBlend mode="normal" in2="shape" result="effect1_innerShadow_18590_2080"/>
<feColorMatrix in="SourceAlpha" type="matrix" values="0 0 0 0 0 0 0 0 0 0 0 0 0 0 0 0 0 0 127 0" result="hardAlpha"/>
<feOffset dy="-0.5"/>
<feGaussianBlur stdDeviation="0.5"/>
<feComposite in2="hardAlpha" operator="arithmetic" k2="-1" k3="1"/>
<feColorMatrix type="matrix" values="0 0 0 0 0.968627 0 0 0 0 0.45098 0 0 0 0 0.266667 0 0 0 1 0"/>
<feBlend mode="normal" in2="effect1_innerShadow_18590_2080" result="effect2_innerShadow_18590_2080"/>
<feColorMatrix in="SourceAlpha" type="matrix" values="0 0 0 0 0 0 0 0 0 0 0 0 0 0 0 0 0 0 127 0" result="hardAlpha"/>
<feOffset dy="-0.25"/>
<feGaussianBlur stdDeviation="0.25"/>
<feComposite in2="hardAlpha" operator="arithmetic" k2="-1" k3="1"/>
<feColorMatrix type="matrix" values="0 0 0 0 0.839216 0 0 0 0 0.443137 0 0 0 0 0.356863 0 0 0 1 0"/>
<feBlend mode="normal" in2="effect2_innerShadow_18590_2080" result="effect3_innerShadow_18590_2080"/>
<feColorMatrix in="SourceAlpha" type="matrix" values="0 0 0 0 0 0 0 0 0 0 0 0 0 0 0 0 0 0 127 0" result="hardAlpha"/>
<feOffset dx="-0.25"/>
<feGaussianBlur stdDeviation="0.5"/>
<feComposite in2="hardAlpha" operator="arithmetic" k2="-1" k3="1"/>
<feColorMatrix type="matrix" values="0 0 0 0 1 0 0 0 0 0.847059 0 0 0 0 0.376471 0 0 0 1 0"/>
<feBlend mode="normal" in2="effect3_innerShadow_18590_2080" result="effect4_innerShadow_18590_2080"/>
</filter>
<filter id="filter1_f_18590_2080" x="7.35156" y="3.45227" width="7.84375" height="9.68756" filterUnits="userSpaceOnUse" color-interpolation-filters="sRGB">
<feFlood flood-opacity="0" result="BackgroundImageFix"/>
<feBlend mode="normal" in="SourceGraphic" in2="BackgroundImageFix" result="shape"/>
<feGaussianBlur stdDeviation="0.5" result="effect1_foregroundBlur_18590_2080"/>
</filter>
<filter id="filter2_f_18590_2080" x="19.4452" y="3.60846" width="10.8752" height="24.5314" filterUnits="userSpaceOnUse" color-interpolation-filters="sRGB">
<feFlood flood-opacity="0" result="BackgroundImageFix"/>
<feBlend mode="normal" in="SourceGraphic" in2="BackgroundImageFix" result="shape"/>
<feGaussianBlur stdDeviation="0.5" result="effect1_foregroundBlur_18590_2080"/>
</filter>
<linearGradient id="paint0_linear_18590_2080" x1="17.1328" y1="7.3898" x2="15.7583" y2="28.1102" gradientUnits="userSpaceOnUse">
<stop stop-color="#FFD04C"/>
<stop offset="1" stop-color="#FF9249"/>
</linearGradient>
<linearGradient id="paint1_linear_18590_2080" x1="21.0078" y1="5.7648" x2="28.9453" y2="27.2648" gradientUnits="userSpaceOnUse">
<stop stop-color="#FFFF7A"/>
<stop offset="1" stop-color="#FFBD69"/>
</linearGradient>
</defs>
</svg>

<svg width="32" height="32" fill="none" xmlns="http://www.w3.org/2000/svg"><g filter="url(#a)"><path d="M28.26 28.11c-.608 0-1.18-.372-1.404-.975l-6.89-18.464a.25.25 0 0 0-.436-.06l-3.878 5.27c-.327.445-.851.711-1.402.713h-.005c-.55 0-1.073-.263-1.402-.704l-3.96-5.315a.25.25 0 0 0-.432.053L4.64 17.736a1.498 1.498 0 1 1-2.765-1.157L6.701 5.047a1.754 1.754 0 0 1 1.4-1.06 1.75 1.75 0 0 1 1.614.69l4.321 5.799a.25.25 0 0 0 .402-.002l4.32-5.872a1.748 1.748 0 0 1 3.046.424l7.859 21.06a1.498 1.498 0 0 1-1.403 2.024Z" fill="url(#b)"/></g><g filter="url(#c)"><path d="m8.727 4.827 5.093 6.938" stroke="#FFFF7A" stroke-width=".75" stroke-linecap="round"/></g><g filter="url(#d)"><path d="m20.82 4.984 8.125 21.78" stroke="url(#e)" stroke-width=".75" stroke-linecap="round"/></g><defs><filter id="a" x="1.509" y="3.39" width="28.499" height="24.72" filterUnits="userSpaceOnUse" color-interpolation-filters="sRGB"><feFlood flood-opacity="0" result="BackgroundImageFix"/><feBlend in="SourceGraphic" in2="BackgroundImageFix" result="shape"/><feColorMatrix in="SourceAlpha" values="0 0 0 0 0 0 0 0 0 0 0 0 0 0 0 0 0 0 127 0" result="hardAlpha"/><feOffset dx=".25"/><feGaussianBlur stdDeviation=".5"/><feComposite in2="hardAlpha" operator="arithmetic" k2="-1" k3="1"/><feColorMatrix values="0 0 0 0 0.827451 0 0 0 0 0.623529 0 0 0 0 0.270588 0 0 0 1 0"/><feBlend in2="shape" result="effect1_innerShadow_18590_2080"/><feColorMatrix in="SourceAlpha" values="0 0 0 0 0 0 0 0 0 0 0 0 0 0 0 0 0 0 127 0" result="hardAlpha"/><feOffset dy="-.5"/><feGaussianBlur stdDeviation=".5"/><feComposite in2="hardAlpha" operator="arithmetic" k2="-1" k3="1"/><feColorMatrix values="0 0 0 0 0.968627 0 0 0 0 0.45098 0 0 0 0 0.266667 0 0 0 1 0"/><feBlend in2="effect1_innerShadow_18590_2080" result="effect2_innerShadow_18590_2080"/><feColorMatrix in="SourceAlpha" values="0 0 0 0 0 0 0 0 0 0 0 0 0 0 0 0 0 0 127 0" result="hardAlpha"/><feOffset dy="-.25"/><feGaussianBlur stdDeviation=".25"/><feComposite in2="hardAlpha" operator="arithmetic" k2="-1" k3="1"/><feColorMatrix values="0 0 0 0 0.839216 0 0 0 0 0.443137 0 0 0 0 0.356863 0 0 0 1 0"/><feBlend in2="effect2_innerShadow_18590_2080" result="effect3_innerShadow_18590_2080"/><feColorMatrix in="SourceAlpha" values="0 0 0 0 0 0 0 0 0 0 0 0 0 0 0 0 0 0 127 0" result="hardAlpha"/><feOffset dx="-.25"/><feGaussianBlur stdDeviation=".5"/><feComposite in2="hardAlpha" operator="arithmetic" k2="-1" k3="1"/><feColorMatrix values="0 0 0 0 1 0 0 0 0 0.847059 0 0 0 0 0.376471 0 0 0 1 0"/><feBlend in2="effect3_innerShadow_18590_2080" result="effect4_innerShadow_18590_2080"/></filter><filter id="c" x="7.352" y="3.452" width="7.844" height="9.688" filterUnits="userSpaceOnUse" color-interpolation-filters="sRGB"><feFlood flood-opacity="0" result="BackgroundImageFix"/><feBlend in="SourceGraphic" in2="BackgroundImageFix" result="shape"/><feGaussianBlur stdDeviation=".5" result="effect1_foregroundBlur_18590_2080"/></filter><filter id="d" x="19.445" y="3.608" width="10.875" height="24.531" filterUnits="userSpaceOnUse" color-interpolation-filters="sRGB"><feFlood flood-opacity="0" result="BackgroundImageFix"/><feBlend in="SourceGraphic" in2="BackgroundImageFix" result="shape"/><feGaussianBlur stdDeviation=".5" result="effect1_foregroundBlur_18590_2080"/></filter><linearGradient id="b" x1="17.133" y1="7.39" x2="15.758" y2="28.11" gradientUnits="userSpaceOnUse"><stop stop-color="#FFD04C"/><stop offset="1" stop-color="#FF9249"/></linearGradient><linearGradient id="e" x1="21.008" y1="5.765" x2="28.945" y2="27.265" gradientUnits="userSpaceOnUse"><stop stop-color="#FFFF7A"/><stop offset="1" stop-color="#FFBD69"/></linearGradient></defs></svg>
